Numix/16/status/indicator-keyboard-Pl-6.svg

<?xml version="1.0" encoding="UTF-8" standalone="no"?>
<svg
   xmlns:dc="http://purl.org/dc/elements/1.1/"
   xmlns:cc="http://creativecommons.org/ns#"
   xmlns:rdf="http://www.w3.org/1999/02/22-rdf-syntax-ns#"
   xmlns:svg="http://www.w3.org/2000/svg"
   xmlns="http://www.w3.org/2000/svg"
   xmlns:sodipodi="http://sodipodi.sourceforge.net/DTD/sodipodi-0.dtd"
   xmlns:inkscape="http://www.inkscape.org/namespaces/inkscape"
   viewBox="0 0 16 16"
   id="svg2"
   version="1.1"
   inkscape:version="0.91 r13725"
   sodipodi:docname="indicator-keyboard-Pl-6.svg">
  <metadata
     id="metadata14">
    <rdf:RDF>
      <cc:Work
         rdf:about="">
        <dc:format>image/svg+xml</dc:format>
        <dc:type
           rdf:resource="http://purl.org/dc/dcmitype/StillImage" />
      </cc:Work>
    </rdf:RDF>
  </metadata>
  <defs
     id="defs12" />
  <sodipodi:namedview
     pagecolor="#ffffff"
     bordercolor="#666666"
     borderopacity="1"
     objecttolerance="10"
     gridtolerance="10"
     guidetolerance="10"
     inkscape:pageopacity="0"
     inkscape:pageshadow="2"
     inkscape:window-width="640"
     inkscape:window-height="480"
     id="namedview10"
     showgrid="false"
     inkscape:zoom="14.75"
     inkscape:cx="8"
     inkscape:cy="8"
     inkscape:window-x="65"
     inkscape:window-y="24"
     inkscape:window-maximized="0"
     inkscape:current-layer="svg2" />
  <path
     style="fill:#ececec;fill-opacity:1"
     d="M 1.5996094 0 C 0.71320937 2.9605947e-16 0 0.71320937 0 1.5996094 L 0 14.400391 C 2.9605947e-16 15.286791 0.71320937 16 1.5996094 16 L 14.400391 16 C 15.286791 16 16 15.286791 16 14.400391 L 16 1.5996094 C 16 0.71320937 15.286791 0 14.400391 0 L 1.5996094 0 z M 8.9824219 4.1113281 L 8.9824219 9.9628906 C 8.9824219 10.106891 8.9935781 10.2225 9.0175781 10.3125 C 9.0475781 10.3965 9.0905313 10.465531 9.1445312 10.519531 C 9.1985313 10.567531 9.2675625 10.604906 9.3515625 10.628906 C 9.4415625 10.652906 9.5460156 10.673406 9.6660156 10.691406 L 9.5859375 11.177734 C 9.3879375 11.171734 9.2144531 11.143703 9.0644531 11.095703 C 8.9204531 11.053703 8.7973125 10.988437 8.6953125 10.898438 C 8.5993125 10.802438 8.52275 10.681109 8.46875 10.537109 C 8.42075 10.387109 8.3984375 10.202469 8.3984375 9.9804688 L 8.3984375 4.2207031 L 8.9824219 4.1113281 z M 4.6914062 4.8046875 C 5.5734063 4.8046875 6.2301094 4.9725937 6.6621094 5.3085938 C 7.0941094 5.6445937 7.3105469 6.1222344 7.3105469 6.7402344 C 7.3105469 7.0942344 7.2470938 7.3964375 7.1210938 7.6484375 C 6.9950937 7.8944375 6.8160313 8.0959531 6.5820312 8.2519531 C 6.3480312 8.4019531 6.0587969 8.5139375 5.7167969 8.5859375 C 5.3807969 8.6519375 5.0002188 8.6835937 4.5742188 8.6835938 L 3.7285156 8.6835938 L 3.7285156 11.095703 L 3.1171875 11.095703 L 3.1171875 4.9765625 C 3.3331875 4.9165625 3.5850469 4.8736094 3.8730469 4.8496094 C 4.1670469 4.8196094 4.4394063 4.8046875 4.6914062 4.8046875 z M 4.71875 5.3359375 C 4.49075 5.3359375 4.2948125 5.3452813 4.1328125 5.3632812 C 3.9768125 5.3752813 3.8425156 5.3864375 3.7285156 5.3984375 L 3.7285156 8.1523438 L 4.5019531 8.1523438 C 4.8319531 8.1523438 5.1285781 8.1356094 5.3925781 8.0996094 C 5.6625781 8.0576094 5.892125 7.9848125 6.078125 7.8828125 C 6.270125 7.7748125 6.4155781 7.6274062 6.5175781 7.4414062 C 6.6195781 7.2554063 6.671875 7.0184687 6.671875 6.7304688 C 6.671875 6.4544688 6.614 6.226875 6.5 6.046875 C 6.392 5.866875 6.2445938 5.7250469 6.0585938 5.6230469 C 5.8785938 5.5150469 5.6715 5.4404375 5.4375 5.3984375 C 5.2035 5.3564375 4.96475 5.3359375 4.71875 5.3359375 z M 12.615234 8.8242188 L 12.638672 9.1464844 C 12.400772 9.1620844 12.179362 9.1993125 11.976562 9.2578125 C 11.777663 9.3124125 11.601312 9.4005844 11.445312 9.5214844 C 11.289313 9.6384843 11.158034 9.7893625 11.052734 9.9765625 C 10.947434 10.163763 10.874937 10.394969 10.835938 10.667969 C 10.941238 10.613369 11.068597 10.566344 11.216797 10.527344 C 11.364997 10.484444 11.521753 10.462891 11.689453 10.462891 C 11.907853 10.462891 12.093994 10.498159 12.246094 10.568359 C 12.398194 10.634659 12.521634 10.722838 12.615234 10.835938 C 12.708834 10.949038 12.775459 11.080316 12.818359 11.228516 C 12.861259 11.376716 12.882812 11.533466 12.882812 11.697266 C 12.882812 11.849366 12.8593 12.000244 12.8125 12.152344 C 12.7657 12.304444 12.693197 12.443559 12.591797 12.568359 C 12.494297 12.689259 12.368897 12.789187 12.216797 12.867188 C 12.068597 12.945188 11.890294 12.984375 11.683594 12.984375 C 11.258494 12.984375 10.935191 12.835463 10.712891 12.539062 C 10.494491 12.238762 10.384766 11.821409 10.384766 11.287109 C 10.384766 10.495409 10.574825 9.8958281 10.953125 9.4863281 C 11.335325 9.0768281 11.889834 8.8554188 12.615234 8.8242188 z M 11.654297 10.794922 C 11.474897 10.794922 11.318141 10.816475 11.181641 10.859375 C 11.049041 10.898375 10.923641 10.9454 10.806641 11 C 10.798841 11.0663 10.794922 11.119203 10.794922 11.158203 L 10.794922 11.292969 C 10.794922 11.476269 10.806678 11.650653 10.830078 11.814453 C 10.857378 11.978253 10.904403 12.121294 10.970703 12.246094 C 11.040903 12.370894 11.132994 12.470822 11.246094 12.544922 C 11.359194 12.615122 11.502234 12.650391 11.677734 12.650391 C 11.822034 12.650391 11.945475 12.624919 12.046875 12.574219 C 12.148275 12.519619 12.230569 12.449081 12.292969 12.363281 C 12.355369 12.277481 12.400434 12.177553 12.427734 12.064453 C 12.458934 11.951353 12.474609 11.833784 12.474609 11.708984 C 12.474609 11.396984 12.404072 11.165778 12.263672 11.017578 C 12.127172 10.869378 11.923397 10.794922 11.654297 10.794922 z "
     id="path4" />
</svg>

<svg xmlns="http://www.w3.org/2000/svg" viewBox="0 0 16 16">
 <path d="m 1.6 0 c -0.886 0 -1.6 0.713 -1.6 1.6 l 0 12.801 c 0 0.886 0.713 1.6 1.6 1.6 l 12.801 0 c 0.886 0 1.6 -0.713 1.6 -1.6 l 0 -12.801 c 0 -0.886 -0.713 -1.6 -1.6 -1.6 l -12.801 0 z m 7.383 4.111 l 0 5.852 c 0 0.144 0.011 0.26 0.035 0.35 c 0.03 0.084 0.073 0.153 0.127 0.207 c 0.054 0.048 0.123 0.085 0.207 0.109 c 0.09 0.024 0.194 0.044 0.314 0.063 l -0.08 0.486 c -0.198 -0.006 -0.371 -0.034 -0.521 -0.082 c -0.144 -0.042 -0.267 -0.107 -0.369 -0.197 c -0.096 -0.096 -0.173 -0.217 -0.227 -0.361 c -0.048 -0.15 -0.07 -0.335 -0.07 -0.557 l 0 -5.76 l 0.584 -0.109 z m -4.291 0.693 c 0.882 0 1.539 0.168 1.971 0.504 c 0.432 0.336 0.648 0.814 0.648 1.432 c 0 0.354 -0.063 0.656 -0.189 0.908 c -0.126 0.246 -0.305 0.448 -0.539 0.604 c -0.234 0.15 -0.523 0.262 -0.865 0.334 c -0.336 0.066 -0.717 0.098 -1.143 0.098 l -0.846 0 l 0 2.412 l -0.611 0 l 0 -6.119 c 0.216 -0.06 0.468 -0.103 0.756 -0.127 c 0.294 -0.03 0.566 -0.045 0.818 -0.045 z m 0.027 0.531 c -0.228 0 -0.424 0.009 -0.586 0.027 c -0.156 0.012 -0.29 0.023 -0.404 0.035 l 0 2.754 l 0.773 0 c 0.33 0 0.627 -0.017 0.891 -0.053 c 0.27 -0.042 0.5 -0.115 0.686 -0.217 c 0.192 -0.108 0.337 -0.255 0.439 -0.441 c 0.102 -0.186 0.154 -0.423 0.154 -0.711 c 0 -0.276 -0.058 -0.504 -0.172 -0.684 c -0.108 -0.18 -0.255 -0.322 -0.441 -0.424 c -0.18 -0.108 -0.387 -0.183 -0.621 -0.225 c -0.234 -0.042 -0.473 -0.063 -0.719 -0.063 z m 7.896 3.488 l 0.023 0.322 c -0.238 0.016 -0.459 0.053 -0.662 0.111 c -0.199 0.055 -0.375 0.143 -0.531 0.264 c -0.156 0.117 -0.287 0.268 -0.393 0.455 c -0.105 0.187 -0.178 0.418 -0.217 0.691 c 0.105 -0.055 0.233 -0.102 0.381 -0.141 c 0.148 -0.043 0.305 -0.064 0.473 -0.064 c 0.218 0 0.405 0.035 0.557 0.105 c 0.152 0.066 0.276 0.154 0.369 0.268 c 0.094 0.113 0.16 0.244 0.203 0.393 c 0.043 0.148 0.064 0.305 0.064 0.469 c 0 0.152 -0.024 0.303 -0.07 0.455 c -0.047 0.152 -0.119 0.291 -0.221 0.416 c -0.098 0.121 -0.223 0.221 -0.375 0.299 c -0.148 0.078 -0.327 0.117 -0.533 0.117 c -0.425 0 -0.748 -0.149 -0.971 -0.445 c -0.218 -0.3 -0.328 -0.718 -0.328 -1.252 c 0 -0.792 0.19 -1.391 0.568 -1.801 c 0.382 -0.409 0.937 -0.631 1.662 -0.662 z m -0.961 1.971 c -0.179 0 -0.336 0.022 -0.473 0.064 c -0.133 0.039 -0.258 0.086 -0.375 0.141 c -0.008 0.066 -0.012 0.119 -0.012 0.158 l 0 0.135 c 0 0.183 0.012 0.358 0.035 0.521 c 0.027 0.164 0.074 0.307 0.141 0.432 c 0.07 0.125 0.162 0.225 0.275 0.299 c 0.113 0.07 0.256 0.105 0.432 0.105 c 0.144 0 0.268 -0.025 0.369 -0.076 c 0.101 -0.055 0.184 -0.125 0.246 -0.211 c 0.062 -0.086 0.107 -0.186 0.135 -0.299 c 0.031 -0.113 0.047 -0.231 0.047 -0.355 c 0 -0.312 -0.071 -0.543 -0.211 -0.691 c -0.136 -0.148 -0.34 -0.223 -0.609 -0.223 z" style="fill:#ececec;fill-opacity:1"/>
</svg>
